public/operators/withbg/betwinner.svg

<svg width="150" height="120" viewBox="0 0 150 120" fill="none" xmlns="http://www.w3.org/2000/svg">
<rect width="150" height="120" fill="#19674A"/>
<path fill-rule="evenodd" clip-rule="evenodd" d="M20.5422 59.8C21.1422 60.0667 21.6056 60.43 21.9322 60.89C22.2589 61.35 22.4222 61.9 22.4222 62.54C22.4222 64.02 21.8123 65.1333 20.5922 65.88C19.3722 66.6267 17.8023 67 15.8822 67H7.80225L10.6022 53H18.0222C19.6623 53 20.9089 53.29 21.7622 53.87C22.6156 54.45 23.0422 55.2733 23.0422 56.34C23.0422 57.1267 22.8222 57.8167 22.3822 58.41C21.9422 59.0033 21.3289 59.4667 20.5422 59.8ZM14.5822 56.3L14.1622 58.38H16.5622C17.6023 58.38 18.1222 57.9733 18.1222 57.16C18.1222 56.88 18.0156 56.6667 17.8022 56.52C17.5889 56.3733 17.2822 56.3 16.8822 56.3H14.5822ZM16.1422 63.7C16.6222 63.7 17.0089 63.59 17.3022 63.37C17.5956 63.15 17.7422 62.8333 17.7422 62.42C17.7422 62.1267 17.6322 61.9 17.4122 61.74C17.1922 61.58 16.9156 61.5 16.5822 61.5H13.5422L13.1022 63.7H16.1422ZM29.9822 56.56L29.6622 58.2H35.5822L34.9022 61.6H28.9622L28.6022 63.44H35.6222L34.9022 67H23.2622L26.0622 53H37.4422L36.7222 56.56H29.9822ZM41.8222 56.66H37.7222L38.4622 53H51.3822L50.6422 56.66H46.5422L44.4822 67H39.7622L41.8222 56.66Z" fill="#FFCE06"/>
<path fill-rule="evenodd" clip-rule="evenodd" d="M77.086 53L69.806 67H64.746L63.946 59.62L60.106 67H55.046L53.366 53H58.026L58.926 60.98L63.086 53H67.426L68.226 61.1L72.446 53H77.086ZM78.426 53H83.146L80.346 67H75.626L78.426 53ZM99.226 53L96.426 67H92.546L88.526 60.48L87.226 67H82.626L85.426 53H89.306L93.326 59.52L94.626 53H99.226ZM115.306 53L112.506 67H108.626L104.606 60.48L103.306 67H98.706L101.506 53H105.386L109.406 59.52L110.706 53H115.306ZM121.506 56.56L121.186 58.2H127.106L126.426 61.6H120.486L120.126 63.44H127.146L126.426 67H114.786L117.586 53H128.966L128.246 56.56H121.506ZM143.146 57.6C143.146 58.84 142.816 59.9233 142.156 60.85C141.496 61.7767 140.566 62.4667 139.366 62.92L141.706 67H136.806L134.826 63.48H133.666L132.966 67H128.246L131.046 53H137.326C139.166 53 140.596 53.4033 141.616 54.21C142.636 55.0167 143.146 56.1467 143.146 57.6ZM138.366 58.06C138.366 57.1133 137.779 56.64 136.606 56.64H135.026L134.366 59.92H136.306C136.959 59.92 137.466 59.7567 137.826 59.43C138.186 59.1033 138.366 58.6467 138.366 58.06Z" fill="white"/>
</svg>

<svg xmlns="http://www.w3.org/2000/svg" width="150" height="120" fill="none"><path fill="#19674A" d="M0 0h150v120H0z"/><path fill="#FFCE06" fill-rule="evenodd" d="M20.54 59.8c.6.27 1.07.63 1.4 1.09.32.46.48 1.01.48 1.65 0 1.48-.6 2.6-1.83 3.34A8.9 8.9 0 0 1 15.9 67H7.8l2.8-14h7.42c1.64 0 2.89.29 3.74.87.86.58 1.28 1.4 1.28 2.47 0 .79-.22 1.48-.66 2.07a4.33 4.33 0 0 1-1.84 1.39Zm-5.96-3.5-.42 2.08h2.4c1.04 0 1.56-.4 1.56-1.22 0-.28-.1-.5-.32-.64a1.62 1.62 0 0 0-.92-.22h-2.3Zm1.56 7.4c.48 0 .87-.11 1.16-.33.3-.22.44-.54.44-.95a.8.8 0 0 0-.33-.68c-.22-.16-.5-.24-.83-.24h-3.04l-.44 2.2h3.04Zm13.84-7.14-.32 1.64h5.92l-.68 3.4h-5.94l-.36 1.84h7.02L34.9 67H23.26l2.8-14h11.38l-.72 3.56h-6.74Zm11.84.1h-4.1l.74-3.66h12.92l-.74 3.66h-4.1L44.48 67h-4.72l2.06-10.34Z" clip-rule="evenodd"/><path fill="#fff" fill-rule="evenodd" d="M77.09 53 69.8 67h-5.06l-.8-7.38L60.1 67h-5.06l-1.68-14h4.66l.9 7.98L63.09 53h4.34l.8 8.1 4.22-8.1h4.64Zm1.34 0h4.72l-2.8 14h-4.72l2.8-14Zm20.8 0-2.8 14h-3.88l-4.02-6.52-1.3 6.52h-4.6l2.8-14h3.88l4.02 6.52 1.3-6.52h4.6Zm16.08 0-2.8 14h-3.88l-4.02-6.52-1.3 6.52h-4.6l2.8-14h3.88l4.02 6.52 1.3-6.52h4.6Zm6.2 3.56-.32 1.64h5.92l-.68 3.4h-5.94l-.36 1.84h7.02l-.72 3.56h-11.64l2.8-14h11.38l-.72 3.56h-6.74Zm21.64 1.04a5.46 5.46 0 0 1-3.78 5.32L141.7 67h-4.9l-1.98-3.52h-1.16l-.7 3.52h-4.72l2.8-14h6.28c1.84 0 3.27.4 4.29 1.21a4.08 4.08 0 0 1 1.53 3.39Zm-4.78.46c0-.95-.6-1.42-1.76-1.42h-1.58l-.66 3.28h1.94c.65 0 1.16-.16 1.52-.49.36-.33.54-.78.54-1.37Z" clip-rule="evenodd"/></svg>
